X: 1
T: The Dancing Bees
P: Redheugh
C: by Muriel Johnstone
C: from "Muriel Johnstone & Keith Smith Play Vintage Goldring"
C: trans. T. Traub 3-15-2013
R: reel
M: 4/4
K: C
L: 1/8
A2|"Dm"DEFG A2 d2|"C"c2 Gc ECGE|"Dm"DEFG A2 f2|"A"ed^ce "Dm"d2 A2 |
"Dm"DEFG Ad^cd|"C"=c2 Gc ECGE|"Dm"DEFG A^cdf|"A"ed^ce "Dm"fdde||
"Dm"f2 df "G"BGdB|"C"e2 =ce Gcde|"Dm"f2 df "A"e_bag|"Dm"f2 d2 d2 "A"e2|
"Dm"f2 df "G"BGdB|"C"e2 =ce "A"AGFE|"Dm"FDAD "A"^CA,AG|"Dm"F2 D2 D2 |]

